packages/blockchain-info-components/src/Images/img/banks/bank-logo-bank-of-america.svg

<svg fill="none" height="32" viewBox="0 0 32 32" width="32" xmlns="http://www.w3.org/2000/svg" xmlns:xlink="http://www.w3.org/1999/xlink"><clipPath id="a"><path d="m0 0h32v32h-32z"/></clipPath><g clip-path="url(#a)"><path d="m12.4169 12.618c.949.36 1.898.744 2.82 1.18-2.95 1.1499-5.80537 2.5291-8.53997 4.125-.92755-.4699-1.86791-.9141-2.82-1.332 2.74039-1.5417 5.59551-2.87 8.53997-3.973zm-3.53197-1.204c-3.04972.9473-6.00557 2.1738-8.8299984 3.664.8970004.333 1.7929984.667 2.6629984 1.026 2.72475-1.5682 5.59312-2.8725 8.56597-3.895-.791-.282-1.58197-.564-2.39897-.795z" fill="#0067b1"/><path d="m18.8221 12.49c-2.424-1.1254-4.9254-2.0758-7.485-2.84401-.923.256-1.82002.53801-2.68902.82001 2.63482.7691 5.20752 1.7369 7.69602 2.895.8205-.3054 1.6466-.5954 2.478-.87zm3.927-1.127c-2.4722-1.055-5.018-1.92866-7.617-2.61401-.8317.15208-1.6582.33151-2.478.538 2.5811.73511 5.1013 1.66921 7.538 2.79401.8454-.2632 1.6981-.5026 2.557-.718zm-10.912 10.583c1.3089.7825 2.5841 1.6203 3.822 2.511 5.0088-3.8551 10.5139-7.0182 16.367-9.404-.9642-.5816-1.9488-1.1287-2.952-1.64-6.1251 2.003-11.9303 4.8768-17.237 8.533zm12.967-10.48c-6.3606 1.6213-12.4141 4.2695-17.92202 7.84 1.22159.5874 2.42545 1.211 3.61002 1.87 5.4118-3.6355 11.3501-6.4179 17.607-8.25-1.08-.512-2.16-1.025-3.295-1.46z" fill="#ee2a24"/></g></svg>

<svg width="32" height="32" viewBox="0 0 32 32" fill="none" xmlns="http://www.w3.org/2000/svg">
<g clip-path="url(#clip0)">
<path d="M12.4169 12.618C13.3659 12.978 14.3149 13.362 15.2369 13.798C12.2869 14.9479 9.43153 16.3271 6.69693 17.923C5.76938 17.4531 4.82902 17.0089 3.87693 16.591C6.61732 15.0493 9.47244 13.721 12.4169 12.618V12.618ZM8.88493 11.414C5.83521 12.3613 2.87936 13.5878 0.0549316 15.078C0.951932 15.411 1.84793 15.745 2.71793 16.104C5.44268 14.5358 8.31105 13.2315 11.2839 12.209C10.4929 11.927 9.70193 11.645 8.88493 11.414V11.414Z" fill="#0067B1"/>
<path d="M18.8221 12.49C16.3981 11.3646 13.8967 10.4142 11.3371 9.64599C10.4141 9.90199 9.51708 10.184 8.64808 10.466C11.2829 11.2351 13.8556 12.2029 16.3441 13.361C17.1646 13.0556 17.9907 12.7656 18.8221 12.491V12.49ZM22.7491 11.363C20.2769 10.308 17.7311 9.43434 15.1321 8.74899C14.3004 8.90107 13.4739 9.0805 12.6541 9.28699C15.2352 10.0221 17.7554 10.9562 20.1921 12.081C21.0375 11.8178 21.8902 11.5784 22.7491 11.363V11.363ZM11.8371 21.946C13.146 22.7285 14.4212 23.5663 15.6591 24.457C20.6679 20.6019 26.173 17.4388 32.0261 15.053C31.0619 14.4714 30.0773 13.9243 29.0741 13.413C22.949 15.416 17.1438 18.2898 11.8371 21.946V21.946ZM24.8041 11.466C18.4435 13.0873 12.39 15.7355 6.88208 19.306C8.10367 19.8934 9.30753 20.517 10.4921 21.176C15.9039 17.5405 21.8422 14.7581 28.0991 12.926C27.0191 12.414 25.9391 11.901 24.8041 11.466Z" fill="#EE2A24"/>
</g>
<defs>
<clipPath id="clip0">
<rect width="32" height="32" fill="white"/>
</clipPath>
</defs>
</svg>
